svgs/sharp-regular/images.svg

<svg xmlns="http://www.w3.org/2000/svg" viewBox="0 0 576 512"><!--! Font Awesome Pro 6.6.0 by @fontawesome - https://fontawesome.com License - https://fontawesome.com/license (Commercial License) Copyright 2024 Fonticons, Inc. --><path d="M144 80l384 0 0 256-37.2 0L388.1 178.9 368 148.1l-20.1 30.7-52.2 79.8-12.4-16.9L264 215.4l-19.4 26.4L175.6 336 144 336l0-256zM96 32l0 48 0 256 0 48 48 0 384 0 48 0 0-48 0-256 0-48-48 0L144 32 96 32zM48 120l0-24L0 96l0 24L0 456l0 24 24 0 432 0 24 0 0-48-24 0L48 432l0-312zm208 24a32 32 0 1 0 -64 0 32 32 0 1 0 64 0z"/></svg>

<svg xmlns="http://www.w3.org/2000/svg" viewBox="0 0 576 512"><!--! Font Awesome Pro 6.4.2 by @fontawesome - https://fontawesome.com License - https://fontawesome.com/license (Commercial License) Copyright 2023 Fonticons, Inc. --><path d="M144 80H528V336H490.8L388.1 178.9 368 148.1l-20.1 30.7-52.2 79.8-12.4-16.9L264 215.4l-19.4 26.4L175.6 336H144V80zM96 32V80 336v48h48H528h48V336 80 32H528 144 96zM48 120V96H0v24V456v24H24 456h24V432H456 48V120zm208 24a32 32 0 1 0 -64 0 32 32 0 1 0 64 0z"/></svg>
